resources/svg/right-circle-o.svg

<svg width="15" height="15" viewBox="0 0 15 15" fill="none" xmlns="http://www.w3.org/2000/svg">
<path d="M6.14645 10.1464L5.79289 10.5L6.5 11.2071L6.85355 10.8536L6.14645 10.1464ZM9.5 7.5L9.85355 7.85355L10.2071 7.5L9.85355 7.14645L9.5 7.5ZM6.85355 4.14645L6.5 3.79289L5.79289 4.5L6.14645 4.85355L6.85355 4.14645ZM6.85355 10.8536L9.85355 7.85355L9.14645 7.14645L6.14645 10.1464L6.85355 10.8536ZM9.85355 7.14645L6.85355 4.14645L6.14645 4.85355L9.14645 7.85355L9.85355 7.14645ZM7.5 1C11.0899 1 14 3.91015 14 7.5H15C15 3.35787 11.6421 3.57628e-07 7.5 0V1ZM1 7.5C1 3.91015 3.91015 1 7.5 1V0C3.35787 -3.57628e-07 3.57628e-07 3.35786 0 7.5H1ZM7.5 14C3.91015 14 1 11.0899 1 7.5H0C-3.57628e-07 11.6421 3.35786 15 7.5 15V14ZM7.5 15C11.6421 15 15 11.6421 15 7.5H14C14 11.0899 11.0899 14 7.5 14V15Z" fill="black"/>
</svg>

<svg viewBox="0 0 15 15" fill="none" xmlns="http://www.w3.org/2000/svg" fill="currentColor"><path d="M6.146 10.146l-.353.354.707.707.354-.353-.708-.708zM9.5 7.5l.354.354.353-.354-.353-.354L9.5 7.5zM6.854 4.146L6.5 3.793l-.707.707.353.354.708-.708zm0 6.708l3-3-.708-.708-3 3 .708.708zm3-3.708l-3-3-.708.708 3 3 .708-.708zM7.5 1A6.5 6.5 0 0114 7.5h1A7.5 7.5 0 007.5 0v1zM1 7.5A6.5 6.5 0 017.5 1V0A7.5 7.5 0 000 7.5h1zM7.5 14A6.5 6.5 0 011 7.5H0A7.5 7.5 0 007.5 15v-1zm0 1A7.5 7.5 0 0015 7.5h-1A6.5 6.5 0 017.5 14v1z" fill="currentColor"/></svg>
